!!!!SEGMENT: pl-sa--153-a-iv-3--005_anonim--msza-benedictus.krn
!!!cenid: 17xx:1529
!!!COM: Anonim
!!!COM-rismID: pe30004985
!!!CDT:
!!!CNT:
!!!OPR: Msza
!!!OTL: Benedictus
!!!OMV: 005
!!!PDT:
!!!AGN: Sacred; Mass
!!!SMS-siglum: PL-SA
!!!SMS-shelfmark: 153/A IV 3
!!!SMS-shelfwork: 001-005 M
!!!SMS-variant:
!!!SMS-altvar:
!!!NIFC-rismSourceID: 1001035513
!!!NIFC-rismChildID: 1001035513
!!!NIFC-islandoraID: none
!!!URL-pdf-islandora:
!!!URL-scan: https://bc.bdsandomierz.pl/dlibra/publication/1539/edition/1507/content @EN{Scan in the Sandomierz Diocese Digital Library} @PL{Skany w portalu Cyfrowa Biblioteka Diecezjalna w Sandomierzu}
!!!ONB-nifc: UWAGA: części Mszy: 1. Kirie, 2. Gloria, 3. Patrem, 4. Sanctus, 5. Benedictus, 6. Agnus. Uwaga: kontynuacja partii b. fig na str. 22
!!!AIN: 1 bass 2 empty 1 organ 2 violn 1 vox
!!!key: D
**kern	**dynam	**kern	**dynam	**kern	**dynam	**kern	**text	**dynam	**kern	**text	**dynam	**kern	**dynam	**kern
*part7	*part7	*part6	*part6	*part5	*part5	*part4	*part4	*part4	*part3	*part3	*part3	*part2	*part2	*part1
*staff7	*	*staff6	*	*staff5	*	*staff4	*staff4	*	*staff3	*staff3	*	*staff2	*	*staff1
*Iorgan	*	*Ivioln	*	*Ivioln	*	*Ibass	*	*	*Ivox	*	*	*Iempty	*	*Iempty
*I"Organo	*	*I"Violino Secundo	*	*I"Violino Primo	*	*I"Basso	*	*	*I"Canto	*	*	*I"Clarino Secundo	*	*I"Clarino Primo
*I'Org.	*	*I'Vn II	*	*I'Vn I	*	*I'B.	*	*	*I'C.	*	*	*I'Clno II	*	*I'Clno I
*ICklav	*	*ICstr	*	*ICstr	*	*ICvox	*	*	*ICvox	*	*	*ICbras	*	*ICbras
*clefF4	*	*clefG2	*	*clefG2	*	*clefF4	*	*	*clefC1	*	*	*clefG2	*	*clefG2
*	*	*	*	*	*	*	*	*	*	*	*	*ITrd-1c-2	*	*ITrd-1c-2
*k[b-]	*	*k[b-]	*	*k[b-]	*	*k[b-]	*	*	*k[b-]	*	*	*k[f#c#]	*	*k[f#c#]
*D:	*	*D:	*	*D:	*	*D:	*	*	*D:	*	*	*D:	*	*D:
*M4/4	*	*M4/4	*	*M4/4	*	*M4/4	*	*	*M4/4	*	*	*M4/4	*	*M4/4
*met(c)	*	*met(c)	*	*met(c)	*	*met(c)	*	*	*met(c)	*	*	*met(c)	*	*met(c)
=1	=1	=1	=1	=1	=1	=1	=1	=1	=1	=1	=1	=1	=1	=1
!	!	!LO:TX:t=P:problem= mixed beam	!	!LO:TX:t=P:problem= mixed beam	!	!	!	!	!	!	!	!	!	!
!LO:TX:b:rj:t=Benedictus	!	!LO:TX:b:rj:t=Benedictus	!	!LO:TX:b:rj:t=Benedictus	!	!	!	!	!	!	!	!	!	!
!LO:TX:a:rj:t=Tarde	!	!LO:TX:a:rj:t=Largo Solo	!	!LO:TX:a:rj:t=Largo	!	!LO:TX:a:rj:t=Andante	!	!	!LO:TX:a:t=Benedictus Tacet	!	!	!LO:TX:a:t=Benedictus Tacet	!	!LO:TX:a:t=Benedictus Tacet
4D\	.	16.dd\LL	.	16.dd\LL	.	00r	.	.	1ryy	.	.	1ryy	.	1ryy
.	.	32d/K	.	32d/K	.	.	.	.	.	.	.	.	.	.
.	.	16.f/	.	16.f/	.	.	.	.	.	.	.	.	.	.
.	.	32d/JJk	.	32d/JJk	.	.	.	.	.	.	.	.	.	.
16.d\LL	.	8gg\L	.	8bb-\L	.	.	.	.	.	.	.	.	.	.
32D\JJk	.	.	.	.	.	.	.	.	.	.	.	.	.	.
16.F\LL	.	8ff\J	.	8aa\J	.	.	.	.	.	.	.	.	.	.
32D\JJk	.	.	.	.	.	.	.	.	.	.	.	.	.	.
8AA/	.	16.ee\LL	.	16.gg\LL	.	.	.	.	.	.	.	.	.	.
.	.	32a\JJk	.	32a\K	.	.	.	.	.	.	.	.	.	.
8r	.	16.cc#X\LL	.	16.cc#X\	.	.	.	.	.	.	.	.	.	.
.	.	32a\JJk	.	32a\JJk	.	.	.	.	.	.	.	.	.	.
.	.	.	.	16qqff/LL	.	.	.	.	.	.	.	.	.	.
!LO:TX:t=P:problem= mixed beam	!	!	!	!	!	!	!	!	!	!	!	!	!	!
.	.	.	.	16qqgg/JJ	.	.	.	.	.	.	.	.	.	.
16.A\LL	.	8ff\L	.	8aa\L	.	.	.	.	.	.	.	.	.	.
32AA/JJk	.	.	.	.	.	.	.	.	.	.	.	.	.	.
16.C#X/LL	.	8eet\J	.	8ggT\J	.	.	.	.	.	.	.	.	.	.
32AA/JJk	.	.	.	.	.	.	.	.	.	.	.	.	.	.
=2	=2	=2	=2	=2	=2	=2	=2	=2	=2	=2	=2	=2	=2	=2
!	!	!LO:TX:t=P:problem= mixed beam	!	!LO:TX:t=P:problem= mixed beam	!	!	!	!	!	!	!	!	!	!
16.d\LL	.	16.dd\LL	.	16.ff\LL	.	.	.	.	1ryy	.	.	1ryy	.	1ryy
32D\JJk	.	32d/JJk	.	32d/K	.	.	.	.	.	.	.	.	.	.
16.F\LL	.	16.f/LL	.	16.f/	.	.	.	.	.	.	.	.	.	.
32D\JJk	.	32d/JJk	.	32d/JJk	.	.	.	.	.	.	.	.	.	.
!	!	!LO:TX:a:t=|	!	!LO:TX:b:t=|	!	!	!	!	!	!	!	!	!	!
8B-X\L	.	8b-X\L	.	8b-/L	.	.	.	.	.	.	.	.	.	.
!	!	!LO:TX:a:t=|	!	!LO:TX:b:t=|	!	!	!	!	!	!	!	!	!	!
8A\J	.	8a\J	.	8a/J	.	.	.	.	.	.	.	.	.	.
!	!	!LO:TX:b:t=|	!	!	!	!	!	!	!	!	!	!	!	!
8G#X\L	.	8g#X/L	.	8g#X/L	.	.	.	.	.	.	.	.	.	.
!	!	!LO:TX:b:t=|	!	!	!	!	!	!	!	!	!	!	!	!
8A\J	.	8a/J	.	8a/J	.	.	.	.	.	.	.	.	.	.
4r	.	4r	.	8r	.	.	.	.	.	.	.	.	.	.
.	.	.	.	16r	.	.	.	.	.	.	.	.	.	.
.	.	.	.	16a/	.	.	.	.	.	.	.	.	.	.
=3	=3	=3	=3	=3	=3	=3	=3	=3	=3	=3	=3	=3	=3	=3
8AA/	.	8ff\	.	16.aa\LL	.	.	.	.	1ryy	.	.	1ryy	.	1ryy
.	.	.	.	32ff\K	.	.	.	.	.	.	.	.	.	.
8r	.	8r	.	16.dd\	.	.	.	.	.	.	.	.	.	.
.	.	.	.	32a\JJk	.	.	.	.	.	.	.	.	.	.
8AA/	.	8ee\	.	16.gg\LL	.	.	.	.	.	.	.	.	.	.
.	.	.	.	32ee\K	.	.	.	.	.	.	.	.	.	.
8r	.	8r	.	16.cc#X\	.	.	.	.	.	.	.	.	.	.
.	.	.	.	32a\JJk	.	.	.	.	.	.	.	.	.	.
8AA/	.	16.aa\LL	.	16.ff#X\LL	.	.	.	.	.	.	.	.	.	.
.	.	32ff\JJk	.	32dd\JJk	.	.	.	.	.	.	.	.	.	.
8r	.	16.dd\LL	.	16.a/LL	.	.	.	.	.	.	.	.	.	.
.	.	32a\JJk	.	32f/JJk	.	.	.	.	.	.	.	.	.	.
8AA/	.	16.gg\LL	.	16.ee\LL	.	.	.	.	.	.	.	.	.	.
.	.	32ee\JJk	.	32cc#X\JJk	.	.	.	.	.	.	.	.	.	.
8r	.	16.cc#X\LL	.	16.g/LL	.	.	.	.	.	.	.	.	.	.
.	.	32a\JJk	.	32e/JJk	.	.	.	.	.	.	.	.	.	.
=4	=4	=4	=4	=4	=4	=4	=4	=4	=4	=4	=4	=4	=4	=4
!	!	!	!	!LO:TUP:b:problem=klamra łukowa,kropka zamiast cyfry	!	!	!	!	!	!	!	!	!	!
16.d\LL	.	8dd\L	.	24f/LL	.	.	.	.	1ryy	.	.	1ryy	.	1ryy
.	.	.	.	24e/	.	.	.	.	.	.	.	.	.	.
.	.	.	.	24d/JJ	.	.	.	.	.	.	.	.	.	.
32D\JJk	.	.	.	.	.	.	.	.	.	.	.	.	.	.
16.F\LL	.	16.a\L	.	8ddd\L	.	.	.	.	.	.	.	.	.	.
32D\JJk	.	32f\JJk	.	.	.	.	.	.	.	.	.	.	.	.
8B-X\L	.	8ff\L	.	8ddd\	.	.	.	.	.	.	.	.	.	.
8A\J	.	8ff\J	.	8ddd\J	.	.	.	.	.	.	.	.	.	.
8G#X\L	.	8ff\L	.	8ddd\L	.	.	.	.	.	.	.	.	.	.
8A\J	.	8ee\J	.	16ccc#X\L	.	.	.	.	.	.	.	.	.	.
.	.	.	.	16bb-\JJ	.	.	.	.	.	.	.	.	.	.
8r	.	8r	.	16aa\LL	.	.	.	.	.	.	.	.	.	.
.	.	.	.	16gg\	.	.	.	.	.	.	.	.	.	.
8C#X/	.	8ee\	.	16ff\	.	.	.	.	.	.	.	.	.	.
.	.	.	.	16ee\JJ	.	.	.	.	.	.	.	.	.	.
!	!	!	!	!LO:LB:g=original	!	!	!	!	!	!	!	!	!	!
=5	=5	=5	=5	=5	=5	=5	=5	=5	=5	=5	=5	=5	=5	=5
8D/L	.	4dd\	.	4dd\	.	2r	.	.	1ryy	.	.	1ryy	.	1ryy
8BB-/	.	.	.	.	.	.	.	.	.	.	.	.	.	.
8GG/	.	4cc#Xt\	.	4eet\	.	.	.	.	.	.	.	.	.	.
8AA/J	.	.	.	.	.	.	.	.	.	.	.	.	.	.
!	!	!LO:TX:t=P:problem= mixed beam	!LO:DY:a:t=p&colon;	!LO:TX:t=P:problem= mixed beam	!LO:DY:a:t=pia	!	!	!	!	!	!	!	!	!
4DD/	.	16.dd\LL	p	16.dd\LL	p	4.D\	Be-	.	.	.	.	.	.	.
.	.	32d/JJk	.	32d/K	.	.	.	.	.	.	.	.	.	.
.	.	16.f/LL	.	16.f/	.	.	.	.	.	.	.	.	.	.
.	.	32d/JJk	.	32d/JJk	.	.	.	.	.	.	.	.	.	.
!LO:TX:t=P:problem= mixed beam	!	!	!	!	!	!	!	!	!	!	!	!	!	!
16.d\LL	.	8gg\L	.	8bb-\L	.	.	.	.	.	.	.	.	.	.
32D/JJk	.	.	.	.	.	.	.	.	.	.	.	.	.	.
16.F\LL	.	8ff\J	.	8aa\J	.	8d\	-ne-	.	.	.	.	.	.	.
32D\JJk	.	.	.	.	.	.	.	.	.	.	.	.	.	.
!LO:LB:g=original	!	!	!	!	!	!	!	!	!	!	!	!	!	!
=6	=6	=6	=6	=6	=6	=6	=6	=6	=6	=6	=6	=6	=6	=6
!	!	!	!	!LO:TX:t=P:problem= mixed beam	!	!	!	!	!	!	!	!	!	!
8AA/	.	16.ee\LL	.	16.gg\LL	.	8c#X\	-dic-	.	1ryy	.	.	1ryy	.	1ryy
.	.	32a\JJk	.	32a/K	.	.	.	.	.	.	.	.	.	.
.	.	.	.	.	.	8qqB-/	.	.	.	.	.	.	.	.
8r	.	16.cc#X\LL	.	16.cc#X/	.	8A\	-tus	.	.	.	.	.	.	.
.	.	32a\JJk	.	32a/JJk	.	.	.	.	.	.	.	.	.	.
!LO:TX:t=P:problem= mixed beam	!	!	!	!	!	!	!	!	!	!	!	!	!	!
16.A\LL	.	8ff\L	.	8aa\L	.	8r	.	.	.	.	.	.	.	.
32AA/JJk	.	.	.	.	.	.	.	.	.	.	.	.	.	.
16.C#X/LL	.	8ee\J	.	8gg\J	.	8A\	qui	.	.	.	.	.	.	.
32AA/JJk	.	.	.	.	.	.	.	.	.	.	.	.	.	.
!	!	!LO:LB:g=original	!	!	!	!	!	!	!	!	!	!	!	!
!LO:TX:t=P:problem= mixed beam	!	!LO:TX:t=P:problem= mixed beam	!	!LO:TX:t=P:problem= mixed beam	!	!	!	!	!	!	!	!	!	!
16.d\LL	.	16.dd\LL	.	16.ff\LL	.	8d\L	ve-	.	.	.	.	.	.	.
32D/JJk	.	32d/JJk	.	32d/K	.	.	.	.	.	.	.	.	.	.
.	.	.	.	.	.	16qqc#/LL	.	.	.	.	.	.	.	.
.	.	.	.	.	.	16qqB-/JJ	.	.	.	.	.	.	.	.
16.F\LL	.	16.f/LL	.	16.f/	.	8A\J	.	.	.	.	.	.	.	.
32D\JJk	.	32d/JJk	.	32d/JJk	.	.	.	.	.	.	.	.	.	.
!	!	!	!	!LO:TX:b:t=|	!	!	!	!	!	!	!	!	!	!
8B-X\L	.	8b-\L	.	8b-X/L	.	8B-X\	-nit	.	.	.	.	.	.	.
!	!	!	!	!LO:TX:b:t=|	!	!	!	!	!	!	!	!	!	!
8A\J	.	8a\J	.	8a/J	.	8A\	qui	.	.	.	.	.	.	.
=7	=7	=7	=7	=7	=7	=7	=7	=7	=7	=7	=7	=7	=7	=7
!LO:TX:a:t=|	!	!	!	!	!	!	!	!	!	!	!	!	!	!
8G#X\L	.	8g#X/L	.	8g#X/L	.	8G#X\	ve-	.	1ryy	.	.	1ryy	.	1ryy
!LO:TX:a:t=|	!	!	!	!	!	!	!	!	!	!	!	!	!	!
8A\J	.	8a/J	.	8a/J	.	8A\	-nit	.	.	.	.	.	.	.
8r	.	8r	.	8r	.	8r	.	.	.	.	.	.	.	.
8A\	.	8a/	.	8a/	.	8A\	in	.	.	.	.	.	.	.
!LO:TX:a:t=|	!	!	!	!	!	!	!	!	!	!	!	!	!	!
8Gn\L	.	8gn/L	.	8gn/L	.	8Gn\L	no-	.	.	.	.	.	.	.
!LO:TX:a:t=|	!	!	!	!	!	!	!	!	!	!	!	!	!	!
8F\	.	8f/	.	8f/	.	8F\J	.	.	.	.	.	.	.	.
!LO:TX:a:t=|	!	!	!	!	!	!	!	!	!	!	!	!	!	!
8E\	.	8e/	.	8e/	.	8E\	-mi-	.	.	.	.	.	.	.
!LO:TX:a:t=|	!	!	!	!	!	!	!	!	!	!	!	!	!	!
8D\J	.	8d/J	.	8d/J	.	8D\	-ne	.	.	.	.	.	.	.
=8	=8	=8	=8	=8	=8	=8	=8	=8	=8	=8	=8	=8	=8	=8
!	!	!	!	!LO:TX:t=P:problem= mixed beam	!	!	!	!	!	!	!	!	!	!
8C#X/L	.	8c#X/L	.	16.c#X/LL	.	16C#X/	Do-	.	1ryy	.	.	1ryy	.	1ryy
.	.	.	.	.	.	16BB-/	-mi-	.	.	.	.	.	.	.
.	.	.	.	32ee\K	.	.	.	.	.	.	.	.	.	.
8AA/	.	8c#/	.	16.cc#X\	.	8AA/	-ni	.	.	.	.	.	.	.
.	.	.	.	32a\JJk	.	.	.	.	.	.	.	.	.	.
!	!	!	!	!LO:TX:t=P:problem= mixed beam	!	!	!	!	!	!	!	!	!	!
8BBn/	.	8d/	.	16.aa\LL	.	8r	.	.	.	.	.	.	.	.
.	.	.	.	32a/JJk	.	.	.	.	.	.	.	.	.	.
!	!	!	!	!LO:TX:t=P:problem= mixed beam	!	!	!	!	!	!	!	!	!	!
8C#/J	.	8e/J	.	16.gg\LL	.	8C#X/	qui	.	.	.	.	.	.	.
.	.	.	.	32a/JJk	.	.	.	.	.	.	.	.	.	.
!	!	!	!	!LO:TX:t=P:problem= mixed beam	!	!	!	!	!	!	!	!	!	!
8D\L	.	16.d/LL	.	8ff#X\L	.	4D\	ve-	.	.	.	.	.	.	.
.	.	32a/JJk	.	.	.	.	.	.	.	.	.	.	.	.
8D\	.	16.f#X/LL	.	8d/J	.	.	.	.	.	.	.	.	.	.
.	.	32d/JJk	.	.	.	.	.	.	.	.	.	.	.	.
!	!	!LO:TX:t=P:problem= mixed beam	!	!	!	!	!	!	!	!	!	!	!	!
8En\	.	16.dd\LL	.	4r	.	8E\	-nit	.	.	.	.	.	.	.
.	.	32d/JJk	.	.	.	.	.	.	.	.	.	.	.	.
!	!	!LO:TX:t=P:problem= mixed beam	!	!	!	!	!	!	!	!	!	!	!	!
8F\J	.	16.ccn\LL	.	.	.	8F#X\	in	.	.	.	.	.	.	.
.	.	32d/JJk	.	.	.	.	.	.	.	.	.	.	.	.
=9	=9	=9	=9	=9	=9	=9	=9	=9	=9	=9	=9	=9	=9	=9
!	!	!	!	!LO:TX:t=P:problem= mixed beam	!	!	!	!	!	!	!	!	!	!
4G\	.	8b-\L	.	16.g/LL	.	8G\	no-	.	1ryy	.	.	1ryy	.	1ryy
.	.	.	.	32dd\JJk	.	.	.	.	.	.	.	.	.	.
!	!	!	!	!LO:TX:t=P:problem= mixed beam	!	!	!	!	!	!	!	!	!	!
.	.	8g\J	.	16.b-X\LL	.	16B-\LL	-mi-	.	.	.	.	.	.	.
.	.	.	.	.	.	16c\JJ	.	.	.	.	.	.	.	.
.	.	.	.	32g/JJk	.	.	.	.	.	.	.	.	.	.
!	!	!	!	!	!	!LO:LB:g=original	!	!	!	!	!	!	!	!
8A\L	.	4r	.	16.gg\LL	.	8d\	-ne	.	.	.	.	.	.	.
.	.	.	.	32g/JJk	.	.	.	.	.	.	.	.	.	.
!	!	!	!	!LO:TX:t=P:problem= mixed beam	!	!	!	!	!	!	!	!	!	!
8Bn\J	.	.	.	16.ff\LL	.	8BBn/	in	.	.	.	.	.	.	.
.	.	.	.	32g/JJk	.	.	.	.	.	.	.	.	.	.
!LO:TX:t=P:problem= mixed beam	!	!	!	!LO:TX:t=P:problem= mixed beam	!	!	!	!	!	!	!	!	!	!
8c\L	.	16r	.	8ee\L	.	4C/	no-	.	.	.	.	.	.	.
.	.	16c/LL	.	.	.	.	.	.	.	.	.	.	.	.
8C/	.	16.e/	.	8cn/J	.	.	.	.	.	.	.	.	.	.
.	.	32g/JJk	.	.	.	.	.	.	.	.	.	.	.	.
!	!	!LO:TX:t=P:problem= mixed beam	!	!	!	!	!	!	!	!	!	!	!	!
8D/	.	16.cc\LL	.	4r	.	8D\	-mi-	.	.	.	.	.	.	.
.	.	32c/JJk	.	.	.	.	.	.	.	.	.	.	.	.
!	!	!LO:TX:t=P:problem= mixed beam	!	!	!	!	!	!	!	!	!	!	!	!
8En/J	.	16.b-\LL	.	.	.	8En\	-ne	.	.	.	.	.	.	.
.	.	32c/JJk	.	.	.	.	.	.	.	.	.	.	.	.
=10	=10	=10	=10	=10	=10	=10	=10	=10	=10	=10	=10	=10	=10	=10
!LO:TX:t=P:problem= mixed beam	!	!	!	!	!	!	!	!	!	!	!	!	!	!
8F\L	.	8a/L	.	4r	.	(16F\LL	Do-	.	1ryy	.	.	1ryy	.	1ryy
.	.	.	.	.	.	16G\JJ)	.	.	.	.	.	.	.	.
8FF/	.	8f/J	.	.	.	16A\LL	-mi-	.	.	.	.	.	.	.
.	.	.	.	.	.	16B-\JJ	.	.	.	.	.	.	.	.
8AA/	.	4r	.	8r	.	8c\	-ni	.	.	.	.	.	.	.
8FF/J	.	.	.	16r	.	8c\	qui	.	.	.	.	.	.	.
.	.	.	.	16cc\	.	.	.	.	.	.	.	.	.	.
*	*	*	*	*	*	*2\right	*	*	*	*	*	*	*	*
4C/	.	8aa\	.	16.ccc\LL	.	2c\	ve-	.	.	.	.	.	.	.
.	.	.	.	32aa\K	.	.	.	.	.	.	.	.	.	.
.	.	8r	.	16.ff\	.	.	.	.	.	.	.	.	.	.
.	.	.	.	32cc\JJk	.	.	.	.	.	.	.	.	.	.
4r	.	8gg\	.	16.bb-\LL	.	.	.	.	.	.	.	.	.	.
.	.	.	.	32gg\K	.	.	.	.	.	.	.	.	.	.
.	.	8r	.	16.ee\	.	.	.	.	.	.	.	.	.	.
.	.	.	.	32cc\JJk	.	.	.	.	.	.	.	.	.	.
=11	=11	=11	=11	=11	=11	=11	=11	=11	=11	=11	=11	=11	=11	=11
4C/	.	16.ccc\LL	.	16.aa\LL	.	4C/	-nit	.	1ryy	.	.	1ryy	.	1ryy
.	.	32aa\K	.	32ff\K	.	.	.	.	.	.	.	.	.	.
.	.	16.gg\	.	16.cc\	.	.	.	.	.	.	.	.	.	.
.	.	32ee\JJk	.	32a\JJk	.	.	.	.	.	.	.	.	.	.
4r	.	16.bb-\LL	.	16.gg\LL	.	8r	.	.	.	.	.	.	.	.
.	.	32gg\K	.	32ee\K	.	.	.	.	.	.	.	.	.	.
.	.	16.ee\	.	16.b-\	.	8C/	qui	.	.	.	.	.	.	.
.	.	32cc\JJk	.	32g\JJk	.	.	.	.	.	.	.	.	.	.
!	!	!	!	!LO:LB:g=original	!	!	!	!	!	!	!	!	!	!
4F\	.	4c/	.	16a/LL	.	8F\L	ve-	.	.	.	.	.	.	.
.	.	.	.	16f/JJ	.	.	.	.	.	.	.	.	.	.
.	.	.	.	8ff\	.	16G\L	.	.	.	.	.	.	.	.
.	.	.	.	.	.	16A\JJ	.	.	.	.	.	.	.	.
8r	.	8r	.	8r	.	16B-\LL	.	.	.	.	.	.	.	.
.	.	.	.	.	.	16c\	.	.	.	.	.	.	.	.
8G\	.	8cc\	.	8ee\	.	16d\	.	.	.	.	.	.	.	.
.	.	.	.	.	.	16e\JJ	.	.	.	.	.	.	.	.
!	!	!LO:LB:g=original	!	!	!	!	!	!	!	!	!	!	!	!
=12	=12	=12	=12	=12	=12	=12	=12	=12	=12	=12	=12	=12	=12	=12
8A\L	.	4cc\	.	8ff\L	.	8f\L	.	.	1ryy	.	.	1ryy	.	1ryy
8F\	.	.	.	16ee\L	.	8B-\J	.	.	.	.	.	.	.	.
.	.	.	.	16dd\JJ	.	.	.	.	.	.	.	.	.	.
8E\	.	8r	.	16cc\LL	.	8A\	-nit	.	.	.	.	.	.	.
.	.	.	.	16b-\	.	.	.	.	.	.	.	.	.	.
8C\J	.	8c/	.	16a\	.	8E\	in	.	.	.	.	.	.	.
.	.	.	.	16g\JJ	.	.	.	.	.	.	.	.	.	.
8F\L	.	8f/L	.	4f/	.	8F\	no-	.	.	.	.	.	.	.
8BB-\J	.	8d/J	.	.	.	16BB-/	-mi-	.	.	.	.	.	.	.
.	.	.	.	.	.	16BB-/	-ne	.	.	.	.	.	.	.
8C/L	.	4et/	.	4gT/	.	8.C/	Do-	.	.	.	.	.	.	.
8CC/J	.	.	.	.	.	.	.	.	.	.	.	.	.	.
.	.	.	.	.	.	16C/	-mi-	.	.	.	.	.	.	.
!LO:LB:g=original	!	!	!	!	!	!	!	!	!	!	!	!	!	!
=13	=13	=13	=13	=13	=13	=13	=13	=13	=13	=13	=13	=13	=13	=13
!	!	!LO:TX:t=P:problem= mixed beam	!	!LO:TX:t=P:problem= mixed beam	!LO:DY:a:t=for	!	!	!	!	!	!	!	!	!
4FF/	.	16.ff\LL	.	16.ff\LL	f	4FF/	-ni	.	1ryy	.	.	1ryy	.	1ryy
.	.	32f/JJk	.	32f/K	.	.	.	.	.	.	.	.	.	.
.	.	16.a/LL	.	16.a/	.	.	.	.	.	.	.	.	.	.
.	.	32f/JJk	.	32f/JJk	.	.	.	.	.	.	.	.	.	.
.	.	.	.	16qqb-/LL	.	.	.	.	.	.	.	.	.	.
!LO:TX:t=P:problem= mixed beam	!	!	!	!	!	!	!	!	!	!	!	!	!	!
.	.	.	.	16qqcc/JJ	.	.	.	.	.	.	.	.	.	.
16.F\LL	.	8b-\L	.	8dd\L	.	4r	.	.	.	.	.	.	.	.
32FF/JJk	.	.	.	.	.	.	.	.	.	.	.	.	.	.
16.AA/LL	.	8a\J	.	8cc\J	.	.	.	.	.	.	.	.	.	.
32FF/JJk	.	.	.	.	.	.	.	.	.	.	.	.	.	.
!	!	!	!	!LO:TX:t=P:problem= mixed beam	!	!	!	!	!	!	!	!	!	!
4C/	.	16.g/LL	.	16.b-/LL	.	2r	.	.	.	.	.	.	.	.
.	.	32c/JJk	.	32c/K	.	.	.	.	.	.	.	.	.	.
.	.	16.e/LL	.	16.e/	.	.	.	.	.	.	.	.	.	.
.	.	32c/JJk	.	32c/JJk	.	.	.	.	.	.	.	.	.	.
!LO:TX:t=P:problem= mixed beam	!	!	!	!	!	!	!	!	!	!	!	!	!	!
16.c\LL	.	8a/L	.	8cc\L	.	.	.	.	.	.	.	.	.	.
32C/JJk	.	.	.	.	.	.	.	.	.	.	.	.	.	.
16.E\LL	.	8g/J	.	8b-\J	.	.	.	.	.	.	.	.	.	.
32C\JJk	.	.	.	.	.	.	.	.	.	.	.	.	.	.
=14	=14	=14	=14	=14	=14	=14	=14	=14	=14	=14	=14	=14	=14	=14
!	!	!LO:TX:t=P:problem= mixed beam	!	!LO:TX:t=P:problem= mixed beam	!	!	!	!	!	!	!	!	!	!
4F\	.	16f/KL	.	16a/KL	.	0r	.	.	1ryy	.	.	1ryy	.	1ryy
.	.	8dd\	.	8ff\	.	.	.	.	.	.	.	.	.	.
.	.	16cc\Jk	.	16ee\Jk	.	.	.	.	.	.	.	.	.	.
4BB-/	.	16b-\LL	.	16dd\LL	.	.	.	.	.	.	.	.	.	.
.	.	16a\	.	16cc\	.	.	.	.	.	.	.	.	.	.
.	.	16g\	.	16b-\	.	.	.	.	.	.	.	.	.	.
.	.	16f\JJ	.	16a\JJ	.	.	.	.	.	.	.	.	.	.
!LO:TX:t=P:problem= mixed beam	!	!	!	!	!	!	!	!	!	!	!	!	!	!
.	.	8qqg/	.	8qqb-/	.	.	.	.	.	.	.	.	.	.
16.C/LL	.	8f/L	.	8a/L	.	.	.	.	.	.	.	.	.	.
32c\JJk	.	.	.	.	.	.	.	.	.	.	.	.	.	.
16.G\LL	.	8en/J	.	8g/J	.	.	.	.	.	.	.	.	.	.
32E-X\JJk	.	.	.	.	.	.	.	.	.	.	.	.	.	.
8C/	.	4r	.	8r	.	.	.	.	.	.	.	.	.	.
8r	.	.	.	16r	.	.	.	.	.	.	.	.	.	.
.	.	.	.	16cc\	.	.	.	.	.	.	.	.	.	.
=15	=15	=15	=15	=15	=15	=15	=15	=15	=15	=15	=15	=15	=15	=15
8C/	.	8aa\	.	16.ccc\LL	.	.	.	.	1ryy	.	.	1ryy	.	1ryy
.	.	.	.	32aa\K	.	.	.	.	.	.	.	.	.	.
8r	.	8r	.	16.ff\	.	.	.	.	.	.	.	.	.	.
.	.	.	.	32cc\JJk	.	.	.	.	.	.	.	.	.	.
8C/	.	8gg\	.	16.bb-\LL	.	.	.	.	.	.	.	.	.	.
.	.	.	.	32gg\K	.	.	.	.	.	.	.	.	.	.
8r	.	8r	.	16.ee\	.	.	.	.	.	.	.	.	.	.
.	.	.	.	32cc\JJk	.	.	.	.	.	.	.	.	.	.
8C/	.	16.ccc\LL	.	16.aa\LL	.	.	.	.	.	.	.	.	.	.
.	.	32aa\K	.	32ff\K	.	.	.	.	.	.	.	.	.	.
8r	.	16.gg\	.	16.cc\	.	.	.	.	.	.	.	.	.	.
.	.	32ee\JJk	.	32a\JJk	.	.	.	.	.	.	.	.	.	.
8C/	.	16.bb-\LL	.	16.gg\LL	.	.	.	.	.	.	.	.	.	.
.	.	32gg\K	.	32ee\K	.	.	.	.	.	.	.	.	.	.
8r	.	16.ee\	.	16.b-\	.	.	.	.	.	.	.	.	.	.
.	.	32cc\JJk	.	32g\JJk	.	.	.	.	.	.	.	.	.	.
!	!	!	!	!	!	!LO:LB:g=original	!	!	!	!	!	!	!	!
=16	=16	=16	=16	=16	=16	=16	=16	=16	=16	=16	=16	=16	=16	=16
!LO:TX:t=P:problem= mixed beam	!	!LO:TUP:a:problem=klamra łukowa,kropka zamiast cyfry	!	!LO:TUP:b:problem=klamra łukowa,kropka zamiast cyfry	!	!	!	!	!	!	!	!	!	!
8F\L	.	24ff\LL	.	24a\LL	.	2r	.	.	1ryy	.	.	1ryy	.	1ryy
.	.	24ee\	.	24b-\	.	.	.	.	.	.	.	.	.	.
.	.	24ff\JJ	.	24cc\JJ	.	.	.	.	.	.	.	.	.	.
!	!	!LO:TUP:b:problem=klamra łukowa,kropka zamiast cyfry	!	!LO:TUP:a:problem=klamra łukowa,kropka zamiast cyfry	!	!	!	!	!	!	!	!	!	!
8AA/	.	24a/LL	.	24ff\LL	.	.	.	.	.	.	.	.	.	.
.	.	24b-/	.	24ee\	.	.	.	.	.	.	.	.	.	.
.	.	24cc/JJ	.	24ff\JJ	.	.	.	.	.	.	.	.	.	.
!	!	!	!	!LO:TX:t=P:problem= mixed beam	!	!	!	!	!	!	!	!	!	!
8BB-/	.	8b-/L	.	8g/L	.	.	.	.	.	.	.	.	.	.
8C/J	.	8g/J	.	8ee\J	.	.	.	.	.	.	.	.	.	.
!LO:TX:t=P:problem= mixed beam	!LO:DY:a:t=p&colon;	!	!LO:DY:a	!	!	!	!	!	!	!	!	!	!	!
8FF/L	p	8a/L	p	8ff\L	.	4r	.	.	.	.	.	.	.	.
8F\	.	8a/	.	8cc\	.	.	.	.	.	.	.	.	.	.
8E-X\	.	8g/	.	8cc\	.	8c\	Be-	.	.	.	.	.	.	.
8E-\J	.	8g/J	.	8cc\J	.	8c\	-ne-	.	.	.	.	.	.	.
=17	=17	=17	=17	=17	=17	=17	=17	=17	=17	=17	=17	=17	=17	=17
*	*	*	*	*^	*	*	*	*	*	*	*	*	*	*
!	!	!LO:N:vis=4	!	!	!	!	!	!	!	!	!	!	!	!	!
4D\	.	4f#X/	.	4aa/	4cc\	.	8c\L	-dic-	.	1ryy	.	.	1ryy	.	1ryy
.	.	.	.	.	.	.	16qqB-/	.	.	.	.	.	.	.	.
.	.	.	.	.	.	.	8A\J	.	.	.	.	.	.	.	.
8r	.	8r	.	8r	2.ryy	.	8F#X\	-tus	.	.	.	.	.	.	.
8F#X\	.	8a/	.	8dd\	.	.	8d\	qui	.	.	.	.	.	.	.
8G\L	.	8b-/L	.	8dd\L	.	.	4B-T\	ve-	.	.	.	.	.	.	.
8A\	.	8a/	.	8dd\	.	.	.	.	.	.	.	.	.	.	.
8B-\	.	8g/	.	8dd\	.	.	8G\	-nit	.	.	.	.	.	.	.
8G\J	.	8b-/J	.	8dd\J	.	.	8D\	in	.	.	.	.	.	.	.
*	*	*	*	*v	*v	*	*	*	*	*	*	*	*	*	*
!	!	!LO:LB:g=original	!	!LO:LB:g=original	!	!	!	!	!	!	!	!	!	!
=18	=18	=18	=18	=18	=18	=18	=18	=18	=18	=18	=18	=18	=18	=18
4c\	.	4e-X/	.	4g/	.	8E-X\L	no-	.	1ryy	.	.	1ryy	.	1ryy
.	.	.	.	.	.	16e\L	.	.	.	.	.	.	.	.
.	.	.	.	.	.	16d\JJ	.	.	.	.	.	.	.	.
8r	.	8r	.	8r	.	16c\LL	.	.	.	.	.	.	.	.
.	.	.	.	.	.	16B-\	.	.	.	.	.	.	.	.
8C/	.	8e-/	.	8a/	.	16A\	.	.	.	.	.	.	.	.
.	.	.	.	.	.	16G\JJ	.	.	.	.	.	.	.	.
4D/	.	4f/	.	4a/	.	8F\L	.	.	.	.	.	.	.	.
.	.	.	.	.	.	16d\L	.	.	.	.	.	.	.	.
.	.	.	.	.	.	16c\JJ	.	.	.	.	.	.	.	.
8r	.	8r	.	8r	.	16B-\LL	.	.	.	.	.	.	.	.
.	.	.	.	.	.	16A\	.	.	.	.	.	.	.	.
8BB-/	.	8d/	.	8g/	.	16G\	.	.	.	.	.	.	.	.
.	.	.	.	.	.	16F\JJ	.	.	.	.	.	.	.	.
=19	=19	=19	=19	=19	=19	=19	=19	=19	=19	=19	=19	=19	=19	=19
4C/	.	4e-X/	.	4g/	.	8E-X\L	.	.	1ryy	.	.	1ryy	.	1ryy
.	.	.	.	.	.	16c\L	.	.	.	.	.	.	.	.
.	.	.	.	.	.	16B-\JJ	.	.	.	.	.	.	.	.
8r	.	8r	.	8r	.	16A\LL	.	.	.	.	.	.	.	.
.	.	.	.	.	.	16G\	.	.	.	.	.	.	.	.
8AA/	.	8c/	.	8f/	.	16F\	.	.	.	.	.	.	.	.
.	.	.	.	.	.	16E-\JJ	.	.	.	.	.	.	.	.
4BB-/	.	4d/	.	4f/	.	16D\LL	.	.	.	.	.	.	.	.
.	.	.	.	.	.	16F\	.	.	.	.	.	.	.	.
.	.	.	.	.	.	16G\	.	.	.	.	.	.	.	.
.	.	.	.	.	.	16A\JJ	.	.	.	.	.	.	.	.
8r	.	8r	.	8r	.	16B-\LL	.	.	.	.	.	.	.	.
.	.	.	.	.	.	16c\	.	.	.	.	.	.	.	.
8C/	.	8a/	.	8ff\	.	16d\	.	.	.	.	.	.	.	.
.	.	.	.	.	.	16e-X\JJ	.	.	.	.	.	.	.	.
=20	=20	=20	=20	=20	=20	=20	=20	=20	=20	=20	=20	=20	=20	=20
8D\L	.	8b-/L	.	8b-/L	.	8f\L	.	.	1ryy	.	.	1ryy	.	1ryy
8C\	.	8e-X/	.	8a/	.	8A\J	.	.	.	.	.	.	.	.
8D\	.	8f/	.	8b-/	.	8B-\	-mi-	.	.	.	.	.	.	.
8E-X\J	.	8g/J	.	8e-X/J	.	8E\	-ne	.	.	.	.	.	.	.
!LO:LB:g=original	!	!	!	!	!	!	!	!	!	!	!	!	!	!
4F\	.	4f/	.	4f/	.	4.F\	Do-	.	.	.	.	.	.	.
4FF/	.	4r	.	4r	.	.	.	.	.	.	.	.	.	.
.	.	.	.	.	.	8FF/	-mi-	.	.	.	.	.	.	.
!	!	!	!	!	!	!LO:LB:g=original	!	!	!	!	!	!	!	!
=21	=21	=21	=21	=21	=21	=21	=21	=21	=21	=21	=21	=21	=21	=21
!	!	!LO:TX:t=P:problem= mixed beam	!LO:DY:a	!LO:TX:t=P:problem= mixed beam	!LO:DY:a:t=for	!	!	!	!	!	!	!	!	!
4BB-/	.	16.bb-\LL	f	16.bb-\LL	f	4BB-/	-ni	.	1ryy	.	.	1ryy	.	1ryy
.	.	32dd/JJk	.	32b-/JJk	.	.	.	.	.	.	.	.	.	.
.	.	16.ff\LL	.	16.dd\LL	.	.	.	.	.	.	.	.	.	.
.	.	32dd\JJk	.	32b-\JJk	.	.	.	.	.	.	.	.	.	.
!LO:TX:t=P:problem= mixed beam	!	!	!	!	!	!	!	!	!	!	!	!	!	!
16.B-\LL	.	8gg-X\L	.	8gg\L	.	4r	.	.	.	.	.	.	.	.
32BB-/JJk	.	.	.	.	.	.	.	.	.	.	.	.	.	.
16.D\LL	.	8ff\J	.	8ff\J	.	.	.	.	.	.	.	.	.	.
32BB-\JJk	.	.	.	.	.	.	.	.	.	.	.	.	.	.
!	!	!LO:TX:t=P:problem= mixed beam	!	!LO:TX:t=P:problem= mixed beam	!	!	!	!	!	!	!	!	!	!
8F\	.	16.ee\LL	.	16.ee-X\LL	.	4r	.	.	.	.	.	.	.	.
.	.	32f/JJk	.	32f/JJk	.	.	.	.	.	.	.	.	.	.
8r	.	16.a/LL	.	16.a/LL	.	.	.	.	.	.	.	.	.	.
.	.	32f/JJk	.	32f/JJk	.	.	.	.	.	.	.	.	.	.
!LO:TX:t=P:problem= mixed beam	!	!	!	!	!	!	!	!	!	!	!	!	!	!
16.F\LL	.	8dd\L	.	8ff\L	.	8r	.	.	.	.	.	.	.	.
32FF/K	.	.	.	.	.	.	.	.	.	.	.	.	.	.
16.AA/	.	8cc\J	.	8ee-X\J	.	8F\	qui	.	.	.	.	.	.	.
32FF/JJk	.	.	.	.	.	.	.	.	.	.	.	.	.	.
=22	=22	=22	=22	=22	=22	=22	=22	=22	=22	=22	=22	=22	=22	=22
!	!	!	!LO:DY:a	!	!	!	!	!	!	!	!	!	!	!
4BB-/	.	16b-\KL	p	16dd\KL	.	4B-\	ve-	.	1ryy	.	.	1ryy	.	1ryy
.	.	8gg\	.	8bb-\	.	.	.	.	.	.	.	.	.	.
.	.	16ff\Jk	.	16aa\Jk	.	.	.	.	.	.	.	.	.	.
!	!	!LO:TX:a:t=|	!	!LO:TX:a:t=|	!	!	!	!	!	!	!	!	!	!
4E-X\	.	16ee-X\LL	.	16gg\LL	.	8E-X\	-nit	.	.	.	.	.	.	.
!	!	!LO:TX:a:t=|	!	!LO:TX:a:t=|	!	!	!	!	!	!	!	!	!	!
.	.	16dd\	.	16ff\	.	.	.	.	.	.	.	.	.	.
!	!	!LO:TX:a:t=|	!	!LO:TX:a:t=|	!	!	!	!	!	!	!	!	!	!
.	.	16cc\	.	16ee-X\	.	8E-\	qui	.	.	.	.	.	.	.
!	!	!LO:TX:a:t=|	!	!LO:TX:a:t=|	!	!	!	!	!	!	!	!	!	!
.	.	16b-\JJ	.	16dd\JJ	.	.	.	.	.	.	.	.	.	.
.	.	8qqcc/	.	8qqee-/	.	.	.	.	.	.	.	.	.	.
8F\L	.	8b-\L	.	8ddt\L	.	8F\L	ve-	.	.	.	.	.	.	.
8E-X\	.	8a\J	.	8cc\J	.	8E-\J	.	.	.	.	.	.	.	.
8D\	.	4r	.	8r	.	8D/L	.	.	.	.	.	.	.	.
!	!	!	!	!	!LO:DY:a:t=p&colon;	!	!	!	!	!	!	!	!	!
8BB-\J	.	.	.	8b-/	p	16C/L	.	.	.	.	.	.	.	.
.	.	.	.	.	.	16BB-/JJ	.	.	.	.	.	.	.	.
=23	=23	=23	=23	=23	=23	=23	=23	=23	=23	=23	=23	=23	=23	=23
!	!	!	!	!LO:TX:t=P:problem= mixed beam	!	!	!	!	!	!	!	!	!	!
8E-X\L	.	8r	.	8b-\L	.	8E-X\L	.	.	1ryy	.	.	1ryy	.	1ryy
8E-\	.	8b-/L	.	8B-/J	.	16F\L	.	.	.	.	.	.	.	.
.	.	.	.	.	.	16G\JJ	.	.	.	.	.	.	.	.
8E-\	.	8g/	.	8r	.	16A\LL	.	.	.	.	.	.	.	.
.	.	.	.	.	.	16B-\	.	.	.	.	.	.	.	.
8E-\J	.	8e-X/J	.	8cc\	.	16c\	.	.	.	.	.	.	.	.
.	.	.	.	.	.	16E-\JJ	.	.	.	.	.	.	.	.
!	!	!	!	!LO:TX:t=P:problem= mixed beam	!	!	!	!	!	!	!	!	!	!
8F\L	.	8r	.	8cc\L	.	8F\L	.	.	.	.	.	.	.	.
8F\	.	8cc\L	.	8c/J	.	16G\L	.	.	.	.	.	.	.	.
.	.	.	.	.	.	16A\JJ	.	.	.	.	.	.	.	.
8F\	.	8a\	.	8r	.	16B-\LL	.	.	.	.	.	.	.	.
.	.	.	.	.	.	16c\	.	.	.	.	.	.	.	.
8F\J	.	8f\J	.	8dd\	.	16d\	.	.	.	.	.	.	.	.
.	.	.	.	.	.	16F\JJ	.	.	.	.	.	.	.	.
=24	=24	=24	=24	=24	=24	=24	=24	=24	=24	=24	=24	=24	=24	=24
*2\right	*	*	*	*	*	*	*	*	*	*	*	*	*	*
*tremolo	*	*	*	*	*	*	*	*	*	*	*	*	*	*
!	!	!	!	!LO:TX:t=P:problem= mixed beam	!	!	!	!	!	!	!	!	!	!
8G\L	.	8r	.	8dd\L	.	8G\L	.	.	1ryy	.	.	1ryy	.	1ryy
8G\	.	8dd\L	.	8d/J	.	16A\L	.	.	.	.	.	.	.	.
.	.	.	.	.	.	16B-\JJ	.	.	.	.	.	.	.	.
8G\	.	8b-\	.	8r	.	16c\LL	.	.	.	.	.	.	.	.
.	.	.	.	.	.	16d\	.	.	.	.	.	.	.	.
8G\J	.	8g\J	.	16ee-X\LL	.	16e-X\	.	.	.	.	.	.	.	.
.	.	.	.	16dd\JJ	.	16d\JJ	.	.	.	.	.	.	.	.
.	.	.	.	.	.	8qqd/	.	.	.	.	.	.	.	.
8A\L	.	4en/	.	8cc#X\	.	8c#X\L	.	.	.	.	.	.	.	.
8G\	.	.	.	4a/	.	16Bn\L	.	.	.	.	.	.	.	.
.	.	.	.	.	.	16c#\JJ	.	.	.	.	.	.	.	.
8F\	.	8a/L	.	.	.	8A\	-nit	.	.	.	.	.	.	.
8D\J	.	8f/J	.	8aa\	.	8A\	qui	.	.	.	.	.	.	.
*Xtremolo	*	*	*	*	*	*	*	*	*	*	*	*	*	*
!	!	!LO:LB:g=original	!	!LO:LB:g=original	!	!	!	!	!	!	!	!	!	!
=25	=25	=25	=25	=25	=25	=25	=25	=25	=25	=25	=25	=25	=25	=25
4AA/	.	8ff\	.	16.aa\LL	.	2A\	Ve-	.	1ryy	.	.	1ryy	.	1ryy
.	.	.	.	32ff\JJk	.	.	.	.	.	.	.	.	.	.
.	.	8r	.	16.dd\LL	.	.	.	.	.	.	.	.	.	.
.	.	.	.	32a\JJk	.	.	.	.	.	.	.	.	.	.
4r	.	8ee\	.	16.gg\LL	.	.	.	.	.	.	.	.	.	.
.	.	.	.	32een\JJk	.	.	.	.	.	.	.	.	.	.
.	.	8r	.	16.cc#X\LL	.	.	.	.	.	.	.	.	.	.
.	.	.	.	32a\JJk	.	.	.	.	.	.	.	.	.	.
4AA/	.	16.aa\LL	.	16.ff\LL	.	4AA/	-nit	.	.	.	.	.	.	.
.	.	32ff\JJk	.	32dd\JJk	.	.	.	.	.	.	.	.	.	.
.	.	16.dd\LL	.	16.a/LL	.	.	.	.	.	.	.	.	.	.
.	.	32a\JJk	.	32f#X/JJk	.	.	.	.	.	.	.	.	.	.
4r	.	16.gg\LL	.	16.ee\LL	.	8r	.	.	.	.	.	.	.	.
.	.	32ee\JJk	.	32cc#X\JJk	.	.	.	.	.	.	.	.	.	.
.	.	16.cc#X\LL	.	16.g/LL	.	8AA/	qui	.	.	.	.	.	.	.
.	.	32a\JJk	.	32e/JJk	.	.	.	.	.	.	.	.	.	.
=26	=26	=26	=26	=26	=26	=26	=26	=26	=26	=26	=26	=26	=26	=26
*	*	*	*	*Xtuplet	*	*	*	*	*	*	*	*	*	*
4D\	.	4a/	.	24f/LL	.	8D\L	ve-	.	1ryy	.	.	1ryy	.	1ryy
.	.	.	.	24e/	.	.	.	.	.	.	.	.	.	.
.	.	.	.	24d/JJ	.	.	.	.	.	.	.	.	.	.
.	.	.	.	8dd\	.	16En\L	.	.	.	.	.	.	.	.
.	.	.	.	.	.	16F\JJ	.	.	.	.	.	.	.	.
8r	.	8r	.	8r	.	16G\LL	.	.	.	.	.	.	.	.
.	.	.	.	.	.	16A\	.	.	.	.	.	.	.	.
8En\	.	8a/	.	8aa\	.	16B-\	.	.	.	.	.	.	.	.
.	.	.	.	.	.	16c#X\JJ	.	.	.	.	.	.	.	.
!	!	!	!	!	!	!LO:LB:g=original	!	!	!	!	!	!	!	!
8F\L	.	4a/	.	8ddd\L	.	(8d\L	.	.	.	.	.	.	.	.
8D\	.	.	.	16ccc#X\L	.	8G\J)	.	.	.	.	.	.	.	.
.	.	.	.	16bb-X\JJ	.	.	.	.	.	.	.	.	.	.
8C#X\	.	8r	.	16aa\LL	.	8F\	-nit	.	.	.	.	.	.	.
.	.	.	.	16gg\	.	.	.	.	.	.	.	.	.	.
8AA\J	.	8a/	.	16ff\	.	8C#X/	in	.	.	.	.	.	.	.
.	.	.	.	16ee\JJ	.	.	.	.	.	.	.	.	.	.
=27	=27	=27	=27	=27	=27	=27	=27	=27	=27	=27	=27	=27	=27	=27
!LO:TX:t=P:problem= mixed beam	!	!	!	!	!	!	!	!	!	!	!	!	!	!
8D\L	.	8dd\L	.	4dd\	.	8D\	no-	.	1ryy	.	.	1ryy	.	1ryy
8G\	.	8b-\J	.	.	.	16G\	-mi-	.	.	.	.	.	.	.
.	.	.	.	.	.	16G\	-ne	.	.	.	.	.	.	.
8A\	.	4cc#X\	.	4eet\	.	8.A\	Do-	.	.	.	.	.	.	.
8AA/J	.	.	.	.	.	.	.	.	.	.	.	.	.	.
.	.	.	.	.	.	16AA/	-mi-	.	.	.	.	.	.	.
!	!	!LO:TX:t=P:problem= mixed beam	!LO:DY:a	!LO:TX:t=P:problem= mixed beam	!LO:DY:a:t=for	!	!	!	!	!	!	!	!	!
8D\	.	16.dd\LL	f	16.dd\LL	f	4D\	-ni	.	.	.	.	.	.	.
.	.	32d/JJk	.	32d/JJk	.	.	.	.	.	.	.	.	.	.
8r	.	16.f/LL	.	16.f/LL	.	.	.	.	.	.	.	.	.	.
.	.	32d/JJk	.	32d/JJk	.	.	.	.	.	.	.	.	.	.
16.d\LL	.	8gg\L	.	8bb-\L	.	4r	.	.	.	.	.	.	.	.
32D\JJk	.	.	.	.	.	.	.	.	.	.	.	.	.	.
16.F\LL	.	8ff\J	.	8aa\J	.	.	.	.	.	.	.	.	.	.
32D\JJk	.	.	.	.	.	.	.	.	.	.	.	.	.	.
=28	=28	=28	=28	=28	=28	=28	=28	=28	=28	=28	=28	=28	=28	=28
!	!	!	!	!LO:TX:t=P:problem= mixed beam	!	!	!	!	!	!	!	!	!	!
8A\	.	16.ee\LL	.	16.gg\LL	.	0r	.	.	1ryy	.	.	1ryy	.	1ryy
.	.	32a\JJk	.	32a/JJk	.	.	.	.	.	.	.	.	.	.
8r	.	16.cc#X\LL	.	16.cc#X\LL	.	.	.	.	.	.	.	.	.	.
.	.	32a\JJk	.	32a\JJk	.	.	.	.	.	.	.	.	.	.
.	.	.	.	16qqff/LL	.	.	.	.	.	.	.	.	.	.
!LO:TX:t=P:problem= mixed beam	!	!	!	!	!	!	!	!	!	!	!	!	!	!
.	.	.	.	16qqgg/JJ	.	.	.	.	.	.	.	.	.	.
16.A\LL	.	8ff\L	.	8aa\L	.	.	.	.	.	.	.	.	.	.
32AA/JJk	.	.	.	.	.	.	.	.	.	.	.	.	.	.
16.C#X/LL	.	8ee\J	.	8ggT\J	.	.	.	.	.	.	.	.	.	.
32AA/JJk	.	.	.	.	.	.	.	.	.	.	.	.	.	.
!LO:LB:g=original	!	!LO:TX:t=P:problem= mixed beam	!	!LO:TX:t=P:problem= mixed beam	!	!	!	!	!	!	!	!	!	!
16.d\LL	.	16.dd\LL	.	16.ff\LL	.	.	.	.	.	.	.	.	.	.
32D\JJk	.	32d/JJk	.	32d/JJk	.	.	.	.	.	.	.	.	.	.
16.F\LL	.	16.f/LL	.	16.f/LL	.	.	.	.	.	.	.	.	.	.
32D\JJk	.	32d/JJk	.	32d/JJk	.	.	.	.	.	.	.	.	.	.
!	!	!LO:TX:a:t=|	!	!	!	!	!	!	!	!	!	!	!	!
8B-X\L	.	8b-X\L	.	8b-X/L	.	.	.	.	.	.	.	.	.	.
!	!	!LO:TX:a:t=|	!	!	!	!	!	!	!	!	!	!	!	!
8A\J	.	8a\J	.	8a/J	.	.	.	.	.	.	.	.	.	.
=29	=29	=29	=29	=29	=29	=29	=29	=29	=29	=29	=29	=29	=29	=29
!	!	!LO:TX:b:t=|	!	!	!	!	!	!	!	!	!	!	!	!
8G#X\L	.	8g#X/L	.	8g#X/L	.	.	.	.	1ryy	.	.	1ryy	.	1ryy
!	!	!LO:TX:b:t=|	!	!	!	!	!	!	!	!	!	!	!	!
8A\J	.	8a/J	.	8a/J	.	.	.	.	.	.	.	.	.	.
8r	.	8r	.	8r	.	.	.	.	.	.	.	.	.	.
8C#X/	.	8c#X/	.	8c#X/	.	.	.	.	.	.	.	.	.	.
!	!	!LO:TX:t=P:problem= mixed beam	!	!	!	!	!	!	!	!	!	!	!	!
16.D\LL	.	16.d/LL	.	16.d/LL	.	.	.	.	.	.	.	.	.	.
32B-X\K	.	32b-\JJk	.	32b-/JJk	.	.	.	.	.	.	.	.	.	.
16.A\	.	16.a/LL	.	16.a/LL	.	.	.	.	.	.	.	.	.	.
32G#X\JJk	.	32g#X/JJk	.	32g#X/JJk	.	.	.	.	.	.	.	.	.	.
!LO:TX:t=P:problem= mixed beam	!	!	!	!	!	!	!	!	!	!	!	!	!	!
8A\L	.	8a/L	.	8a/L	.	.	.	.	.	.	.	.	.	.
8AA/J	.	8A/J	.	8A/J	.	.	.	.	.	.	.	.	.	.
!	!	!	!	!LO:LB:g=original	!	!	!	!	!	!	!	!	!	!
=30	=30	=30	=30	=30	=30	=30	=30	=30	=30	=30	=30	=30	=30	=30
2D\	.	2d;/	.	2d/	.	1r	.	.	1ryy	.	.	1ryy	.	1ryy
!	!	!	!	!LO:TX:b:t=Verte osanna	!	!	!	!	!	!	!	!	!	!
2r	.	2r	.	2r	.	.	.	.	.	.	.	.	.	.
!	!	!LO:LB:g=original	!	!LO:PB:g=original	!	!	!	!	!	!	!	!	!	!
=31||	=31||	=31||	=31||	=31||	=31||	=31||	=31||	=31||	=31||	=31||	=31||	=31||	=31||	=31||
*k[f#c#]	*	*k[f#c#]	*	*k[f#c#]	*	*k[f#c#]	*	*	*k[f#c#]	*	*	*k[f#c#]	*	*k[f#c#]
*M3/4	*	*M3/4	*	*M3/4	*	*M3/4	*	*	*M3/4	*	*	*M3/4	*	*M3/4
!LO:TX:b:rj:t=Osanna.	!	!LO:TX:b:rj:t=Osanna	!	!LO:TX:b:rj:t=Osanna	!	!	!	!	!	!	!	!LO:TX:b:rj:t=Osanna.	!	!LO:TX:b:rj:t=Osanna
!LO:TX:a:t=Tutti	!	!LO:TX:a:rj:t=Tutti	!	!LO:TX:a:rj:t=Tutti	!	!	!	!	!	!	!	!LO:TX:a:t=Allo&colon;	!	!LO:TX:a:rj:t=Tutti
4d\	.	4ff#\	.	4aa\	.	4d\	O-	.	4dd\	O-	.	4ff#\	.	4aa\
4d\	.	4ff#\	.	4aa\	.	4d\	-san-	.	4dd\	-san-	.	4ff#\	.	4aa\
4d\	.	4ff#\	.	4aa\	.	4d\	-na	.	4dd\	-na	.	4ff#\	.	4aa\
=32	=32	=32	=32	=32	=32	=32	=32	=32	=32	=32	=32	=32	=32	=32
*	*	*	*	*tuplet	*	*	*	*	*2\right	*	*	*	*	*
!	!	!	!	!LO:TUP:a:problem=klamra łukowa,kropka zamiast cyfry	!	!	!	!	!	!	!	!	!	!
4d\	.	4ff#\	.	12ff#\L	.	4d\	in	.	2dd\	in	.	4ff#\	.	4aa\
.	.	.	.	12ee\	.	.	.	.	.	.	.	.	.	.
.	.	.	.	12dd\J	.	.	.	.	.	.	.	.	.	.
*	*	*2\right	*	*2\right	*	*	*	*	*	*	*	*2\right	*	*2\right
8B\L	.	2gg\	.	2bb\	.	8B\L	ex-	.	.	.	.	2gg\	.	2bb\
8A\	.	.	.	.	.	8A\J	.	.	.	.	.	.	.	.
8B\	.	.	.	.	.	8B\L	.	.	4dd\	ex-	.	.	.	.
8G\J	.	.	.	.	.	8G\J	.	.	.	.	.	.	.	.
=33	=33	=33	=33	=33	=33	=33	=33	=33	=33	=33	=33	=33	=33	=33
4d\	.	4ff#\	.	4aa\	.	4d\	-cel-	.	4dd\	-cel-	.	4ff#\	.	4aa\
4D\	.	8gg\L	.	8bb\L	.	4d\	-sis	.	4dd\	-sis	.	4r	.	4r
.	.	8ff#\	.	8aa\	.	.	.	.	.	.	.	.	.	.
4D\	.	8gg\	.	8bb\	.	4r	.	.	4r	.	.	4r	.	4r
.	.	8ee\J	.	8gg\J	.	.	.	.	.	.	.	.	.	.
=34	=34	=34	=34	=34	=34	=34	=34	=34	=34	=34	=34	=34	=34	=34
*	*	*	*	*	*	*	*ij	*	*	*	*	*	*	*
4D\	.	4ff#\	.	4aa\	.	4D\	o-	.	4ff#\	O-	.	4ff#\	.	4aa\
4G\	.	4ee\	.	4gg\	.	4G\	-san-	.	4ee\	-san-	.	4ee\	.	4gg\
4G#X\	.	4dd\	.	4ff#\	.	4G#X\	-na	.	4dd\	-na	.	4dd\	.	4ff#\
=35	=35	=35	=35	=35	=35	=35	=35	=35	=35	=35	=35	=35	=35	=35
4A\	.	4cc#\	.	16ee\LL	.	4A\	in	.	(4cc#\	in	.	4a/	.	4ee\
.	.	.	.	(16cc#\	.	.	.	.	.	.	.	.	.	.
.	.	.	.	16b\	.	.	.	.	.	.	.	.	.	.
.	.	.	.	16a\JJ)	.	.	.	.	.	.	.	.	.	.
8F#\L	.	2dd\	.	2ff#\	.	8F#\L	ex-	.	4a\)	.	.	2ddT\	.	2ff#t\
8E\	.	.	.	.	.	8E\	.	.	.	.	.	.	.	.
8F#\	.	.	.	.	.	8F#\	-cel-	.	4dd\	ex-	.	.	.	.
8D\J	.	.	.	.	.	8D\J	-sis	.	.	.	.	.	.	.
*	*	*	*	*	*	*	*Xij	*	*	*	*	*	*	*
!	!	!	!	!	!	!LO:LB:g=original	!	!	!	!	!	!	!	!
=36	=36	=36	=36	=36	=36	=36	=36	=36	=36	=36	=36	=36	=36	=36
!	!	!	!	!	!	!LO:SIC:s:v=brakujący takt	!	!	!	!	!	!	!	!
4A\	.	4cc#\	.	4ee\	.	2.ryy	.	.	4cc#\	-cel-	.	4a/	.	4ee\
4AA/	.	8dd\L	.	8ff#\L	.	.	.	.	4cc#\	-sis	.	4r	.	4r
.	.	8cc#\	.	8ee\	.	.	.	.	.	.	.	.	.	.
4AA/	.	8dd\	.	8ff#\	.	.	.	.	4r	.	.	4r	.	4r
.	.	8b\J	.	8dd\J	.	.	.	.	.	.	.	.	.	.
=37	=37	=37	=37	=37	=37	=37	=37	=37	=37	=37	=37	=37	=37	=37
4F#\	.	4cc#\	.	4ee\	.	4F#\	O-	.	4cc#\	O-	.	8r	.	8r
.	.	.	.	.	.	.	.	.	.	.	.	8f#/L	.	8f#/L
4A#X\	.	4cc#\	.	4ee\	.	4A#X\	-san-	.	4cc#\	-san-	.	8f#/	.	8f#/
.	.	.	.	.	.	.	.	.	.	.	.	8f#/	.	8f#/
4F#\	.	4cc#\	.	4ee\	.	4F#\	-na	.	4cc#\	-na	.	8f#/	.	8f#/
.	.	.	.	.	.	.	.	.	.	.	.	8f#/J	.	8f#/J
!LO:LB:g=original	!	!	!	!	!	!	!	!	!	!	!	!	!	!
=38	=38	=38	=38	=38	=38	=38	=38	=38	=38	=38	=38	=38	=38	=38
!	!	!LO:TX:t=P:problem= mixed beam	!	!	!	!	!	!	!	!	!	!	!	!
4B\	.	8f#/L	.	4dd\	.	(4B\	in	.	2dd\	in	.	2f#/	.	2f#/
.	.	8ff#\	.	.	.	.	.	.	.	.	.	.	.	.
4c#\	.	8ee\	.	4ddd\	.	4c#\)	ex-	.	.	.	.	.	.	.
.	.	8ff#\	.	.	.	.	.	.	.	.	.	.	.	.
4d\	.	8dd\	.	4bb\	.	4d\	.	.	4dd\	ex-	.	4r	.	4r
.	.	8ff#\J	.	.	.	.	.	.	.	.	.	.	.	.
=39	=39	=39	=39	=39	=39	=39	=39	=39	=39	=39	=39	=39	=39	=39
!	!	!	!	!LO:TUP:a:problem=klamra łukowa,kropka zamiast cyfry	!	!	!	!	!	!	!	!	!	!
8e\L	.	4b/	.	12gg#X\L	.	8e\L	-cel-	.	2.b\	-cel-	.	0.r	.	0.r
.	.	.	.	12ff#\	.	.	.	.	.	.	.	.	.	.
8d\	.	.	.	.	.	8d\	.	.	.	.	.	.	.	.
.	.	.	.	12ee\J	.	.	.	.	.	.	.	.	.	.
8e\	.	4g#X/	.	4bb\	.	8e\	.	.	.	.	.	.	.	.
8E\	.	.	.	.	.	8E\	.	.	.	.	.	.	.	.
8G\	.	4b/	.	4dd\	.	8G\	.	.	.	.	.	.	.	.
8E\J	.	.	.	.	.	8E\J	.	.	.	.	.	.	.	.
=40	=40	=40	=40	=40	=40	=40	=40	=40	=40	=40	=40	=40	=40	=40
!	!	!LO:TX:t=P:problem= mixed beam	!	!	!	!	!	!	!	!	!	!	!	!
4A\	.	8e/L	.	4cc#\	.	4A\	.	.	2.cc#\	.	.	.	.	.
.	.	8ee\	.	.	.	.	.	.	.	.	.	.	.	.
4B\	.	8dd\	.	4ccc#\	.	4B\	.	.	.	.	.	.	.	.
.	.	8ee\	.	.	.	.	.	.	.	.	.	.	.	.
4c#\	.	8cc#\	.	4aa\	.	4c#\	.	.	.	.	.	.	.	.
.	.	8ee\J	.	.	.	.	.	.	.	.	.	.	.	.
=41	=41	=41	=41	=41	=41	=41	=41	=41	=41	=41	=41	=41	=41	=41
!	!	!	!	!LO:TUP:a:problem=klamra łukowa,kropka zamiast cyfry	!	!	!	!	!	!	!	!	!	!
8d\L	.	4a/	.	12ff#\L	.	8d\L	.	.	2.a\	.	.	.	.	.
.	.	.	.	12ee\	.	.	.	.	.	.	.	.	.	.
8c#\	.	.	.	.	.	8c#\	.	.	.	.	.	.	.	.
.	.	.	.	12dd\J	.	.	.	.	.	.	.	.	.	.
8d\	.	4f#/	.	4aa\	.	8d\	.	.	.	.	.	.	.	.
8D\	.	.	.	.	.	8D\	.	.	.	.	.	.	.	.
8F#\	.	4a/	.	4cc#\	.	8F#\	.	.	.	.	.	.	.	.
8D\J	.	.	.	.	.	8D\J	.	.	.	.	.	.	.	.
!	!	!	!	!	!	!	!	!	!LO:LB:g=original	!	!	!	!	!
=42	=42	=42	=42	=42	=42	=42	=42	=42	=42	=42	=42	=42	=42	=42
!	!	!LO:TX:t=P:problem= mixed beam	!	!	!	!	!	!	!	!	!	!	!	!
4G\	.	8d/L	.	4b/	.	4G\	.	.	2.b\	.	.	.	.	.
.	.	8dd\	.	.	.	.	.	.	.	.	.	.	.	.
4A\	.	8cc#\	.	4bb\	.	4A\	.	.	.	.	.	.	.	.
.	.	8dd\	.	.	.	.	.	.	.	.	.	.	.	.
4B\	.	8b\	.	4ggn\	.	4B\	.	.	.	.	.	.	.	.
.	.	8dd\J	.	.	.	.	.	.	.	.	.	.	.	.
=43	=43	=43	=43	=43	=43	=43	=43	=43	=43	=43	=43	=43	=43	=43
!LO:TX:t=P:problem= mixed beam	!	!	!	!LO:TUP:a:problem=klamra łukowa,kropka zamiast cyfry	!	!	!	!	!	!	!	!	!	!
8c#\L	.	4gn/	.	12ee\L	.	8c#\L	.	.	2.g\	.	.	0.r	.	0.r
.	.	.	.	12dd\	.	.	.	.	.	.	.	.	.	.
8B\	.	.	.	.	.	8B\	.	.	.	.	.	.	.	.
.	.	.	.	12cc#\J	.	.	.	.	.	.	.	.	.	.
8c#\	.	4e/	.	4gg\	.	8c#\	.	.	.	.	.	.	.	.
8C#/	.	.	.	.	.	8C#\	.	.	.	.	.	.	.	.
8E/	.	4g/	.	4b/	.	8E\	.	.	.	.	.	.	.	.
8C#/J	.	.	.	.	.	8C#\J	.	.	.	.	.	.	.	.
=44	=44	=44	=44	=44	=44	=44	=44	=44	=44	=44	=44	=44	=44	=44
!	!	!LO:TX:t=P:problem= mixed beam	!	!	!	!	!	!	!	!	!	!	!	!
4F#\	.	8c#/L	.	4a/	.	4F#\	.	.	2.a\	.	.	.	.	.
.	.	8cc#\	.	.	.	.	.	.	.	.	.	.	.	.
4G\	.	8b\	.	4aa\	.	4G\	.	.	.	.	.	.	.	.
.	.	8cc#\	.	.	.	.	.	.	.	.	.	.	.	.
4A\	.	8a\	.	4ff#\	.	4A\	.	.	.	.	.	.	.	.
.	.	8cc#\J	.	.	.	.	.	.	.	.	.	.	.	.
!	!	!	!	!LO:LB:g=original	!	!	!	!	!	!	!	!	!	!
=45	=45	=45	=45	=45	=45	=45	=45	=45	=45	=45	=45	=45	=45	=45
!LO:TX:t=P:problem= mixed beam	!	!	!	!LO:TUP:a:problem=klamra łukowa,kropka zamiast cyfry	!	!LO:TX:t=P:problem= mixed beam	!	!	!	!	!	!	!	!
8B\L	.	4f#/	.	12dd\L	.	8B\L	.	.	2.f#/	.	.	.	.	.
.	.	.	.	12cc#\	.	.	.	.	.	.	.	.	.	.
8A\	.	.	.	.	.	8A\	.	.	.	.	.	.	.	.
.	.	.	.	12b\J	.	.	.	.	.	.	.	.	.	.
8B\	.	4d/	.	4ff#\	.	8B\	.	.	.	.	.	.	.	.
8BB/	.	.	.	.	.	8BB/	.	.	.	.	.	.	.	.
8D/	.	4f#/	.	4a/	.	8D/	.	.	.	.	.	.	.	.
!	!	!	!	!	!	!LO:SIC:s:v=wykreślone dwa takty	!	!	!	!	!	!	!	!
8BB/J	.	.	.	.	.	8BB/J	.	.	.	.	.	.	.	.
!	!	!LO:LB:g=original	!	!	!	!LO:LB:g=original	!	!	!	!	!	!	!	!
=46	=46	=46	=46	=46	=46	=46	=46	=46	=46	=46	=46	=46	=46	=46
!	!	!LO:TX:t=P:problem= mixed beam	!	!	!	!	!	!	!	!	!	!	!	!
4E\	.	8B/L	.	4g/	.	4E\	.	.	2.g/	.	.	.	.	.
.	.	8b\J	.	.	.	.	.	.	.	.	.	.	.	.
4F#\	.	8a\L	.	4gg\	.	4F#\	.	.	.	.	.	.	.	.
.	.	8b\	.	.	.	.	.	.	.	.	.	.	.	.
4G\	.	8gn\	.	4ee\	.	4G\	.	.	.	.	.	.	.	.
.	.	8b\J	.	.	.	.	.	.	.	.	.	.	.	.
=47	=47	=47	=47	=47	=47	=47	=47	=47	=47	=47	=47	=47	=47	=47
!LO:TX:t=P:problem= mixed beam	!	!	!	!LO:TUP:a:problem=klamra łukowa,kropka zamiast cyfry	!	!LO:TX:t=P:problem= mixed beam	!	!	!	!	!	!	!	!
8A\L	.	4e/	.	12cc#\L	.	8A\L	.	.	2.a\	.	.	2.r	.	2.r
.	.	.	.	12b\	.	.	.	.	.	.	.	.	.	.
8G\	.	.	.	.	.	8G\	.	.	.	.	.	.	.	.
.	.	.	.	12a\J	.	.	.	.	.	.	.	.	.	.
8A\	.	4c#/	.	4ee\	.	8A\	.	.	.	.	.	.	.	.
8AA/	.	.	.	.	.	8AA/	.	.	.	.	.	.	.	.
8C#/	.	4e/	.	4g/	.	8C#/	.	.	.	.	.	.	.	.
8AA/J	.	.	.	.	.	8AA/J	.	.	.	.	.	.	.	.
=48	=48	=48	=48	=48	=48	=48	=48	=48	=48	=48	=48	=48	=48	=48
!	!	!	!	!LO:TX:t=P:problem= mixed beam	!	!	!	!	!	!	!	!	!	!
4D\	.	4d/	.	8f#/L	.	4D\	.	.	4a\	-sis	.	4r	.	4r
.	.	.	.	8aa\	.	.	.	.	.	.	.	.	.	.
4F#\	.	4r	.	8gg\	.	4D\	-sis	.	4r	.	.	4r	.	4r
.	.	.	.	8ff#\	.	.	.	.	.	.	.	.	.	.
4D\	.	[4dd\	.	8ee\	.	4F#\	o-	.	4dd\	o-	.	4ff#\	.	4aa\
.	.	.	.	8dd\J	.	.	.	.	.	.	.	.	.	.
=49	=49	=49	=49	=49	=49	=49	=49	=49	=49	=49	=49	=49	=49	=49
4G\	.	2dd\]	.	8bb\L	.	2.G\	-san-	.	4dd\	-san-	.	4gg\	.	4bb\
.	.	.	.	8aa\	.	.	.	.	.	.	.	.	.	.
4B\	.	.	.	8gg\	.	.	.	.	8gg\L	.	.	4r	.	4r
.	.	.	.	8ff#\	.	.	.	.	8ff#\	.	.	.	.	.
4G\	.	4b\	.	8ee\	.	.	.	.	8ee\	.	.	4r	.	4r
.	.	.	.	8dd\J	.	.	.	.	8dd\J	.	.	.	.	.
=50	=50	=50	=50	=50	=50	=50	=50	=50	=50	=50	=50	=50	=50	=50
4C#/	.	2g/	.	8ee\L	.	4C#/	-na	.	8ee\L	.	.	4r	.	4r
.	.	.	.	8cc#\	.	.	.	.	8cc#\	.	.	.	.	.
4E\	.	.	.	8dd\	.	4E\	in	.	8dd\	.	.	4ee\	.	4gg\
.	.	.	.	8ee\	.	.	.	.	8ee\	.	.	.	.	.
4C#/	.	4e/	.	8ff#\	.	4C#/	ex-	.	8ff#\	.	.	4a/	.	4ee\
.	.	.	.	8gg\J	.	.	.	.	8gg\J	.	.	.	.	.
=51	=51	=51	=51	=51	=51	=51	=51	=51	=51	=51	=51	=51	=51	=51
4F#\	.	2cc#\	.	8aa\L	.	2.F#\	-cel-	.	8ff#\L	.	.	4ff#\	.	4aa\
.	.	.	.	8gg\	.	.	.	.	8ee\	.	.	.	.	.
4A\	.	.	.	8ff#\	.	.	.	.	8ff#\	.	.	4r	.	4r
.	.	.	.	8ee\	.	.	.	.	8ee\	.	.	.	.	.
4F#\	.	4a/	.	8dd\	.	.	.	.	8dd\	.	.	4r	.	4r
.	.	.	.	8cc#\J	.	.	.	.	8cc#\J	.	.	.	.	.
!LO:LB:g=original	!	!	!	!	!	!	!	!	!	!	!	!	!	!
=52	=52	=52	=52	=52	=52	=52	=52	=52	=52	=52	=52	=52	=52	=52
4BB/	.	2f#/	.	8dd\L	.	4BB/	-sis	.	8dd\L	.	.	4r	.	4r
.	.	.	.	8b\	.	.	.	.	8b\	.	.	.	.	.
4D/	.	.	.	8cc#\	.	4D/	in	.	8cc#\	.	.	4dd\	.	4ff#\
.	.	.	.	8dd\	.	.	.	.	8dd\	.	.	.	.	.
4BB/	.	4d/	.	8ee\	.	4BB/	ex-	.	8ee\	.	.	4dd\	.	4dd\
.	.	.	.	8ff#\J	.	.	.	.	8ff#\J	.	.	.	.	.
!	!	!	!	!	!	!	!	!	!	!	!	!LO:LB:g=original	!	!
=53	=53	=53	=53	=53	=53	=53	=53	=53	=53	=53	=53	=53	=53	=53
4E\	.	2b\	.	8gg\L	.	2.E\	-cel-	.	8ee\L	.	.	4ee\	.	4gg\
.	.	.	.	8ff#\	.	.	.	.	8dd\	.	.	.	.	.
4G\	.	.	.	8ee\	.	.	.	.	8ee\	.	.	4r	.	4r
.	.	.	.	8dd\	.	.	.	.	8dd\	.	.	.	.	.
4E\	.	4g/	.	8cc#\	.	.	.	.	8cc#\	.	.	4r	.	4r
.	.	.	.	8b\J	.	.	.	.	8b\J	.	.	.	.	.
!	!	!	!	!	!	!	!	!	!	!	!	!	!	!LO:LB:g=original
=54	=54	=54	=54	=54	=54	=54	=54	=54	=54	=54	=54	=54	=54	=54
4AA/	.	2e/	.	8cc#\L	.	4AA/	.	.	8cc#\L	.	.	4r	.	4r
.	.	.	.	8a\	.	.	.	.	8a\	.	.	.	.	.
4C#/	.	.	.	8b\	.	4C#/	.	.	8b\	.	.	4a/	.	4ee\
.	.	.	.	8cc#\	.	.	.	.	8cc#\	.	.	.	.	.
4AA/	.	4c#/	.	8dd\	.	4AA/	.	.	8dd\	.	.	4a/	.	4a/
.	.	.	.	8ee\J	.	.	.	.	8ee\J	.	.	.	.	.
!	!	!	!	!	!	!	!	!	!LO:LB:g=original	!	!	!	!	!
=55	=55	=55	=55	=55	=55	=55	=55	=55	=55	=55	=55	=55	=55	=55
4D\	.	2a/	.	8ff#\L	.	4D\	.	.	2ff#\	.	.	2dd\	.	2ff#\
.	.	.	.	8dd\	.	.	.	.	.	.	.	.	.	.
4F#\	.	.	.	8aa\	.	4F#\	.	.	.	.	.	.	.	.
.	.	.	.	8dd\	.	.	.	.	.	.	.	.	.	.
.	.	.	.	.	.	.	.	.	.	.	.	.	.	16qqgg/LL
.	.	.	.	.	.	.	.	.	8qqee/	.	.	.	.	16qqaa/JJ
4G\	.	4ee\	.	8bb\	.	4G\	.	.	4dd\	.	.	4dd\	.	4bb\
.	.	.	.	8dd\J	.	.	.	.	.	.	.	.	.	.
=56	=56	=56	=56	=56	=56	=56	=56	=56	=56	=56	=56	=56	=56	=56
4.A\	.	4aa\	.	8cc#\L	.	2A\	.	.	8cc#\L	.	.	4a/	.	4ee\
.	.	.	.	8a\	.	.	.	.	8a\	.	.	.	.	.
.	.	4a/	.	8b\	.	.	.	.	8b\	.	.	4r	.	4r
8A\L	.	.	.	8cc#\	.	.	.	.	8cc#\J	.	.	.	.	.
8B\	.	4a/	.	8dd\	.	8B\L	.	.	8dd\L	-na	.	8r	.	8r
8c#\J	.	.	.	8ee\J	.	8c#\J	.	.	8ee\J	.	.	8ee\	.	8gg\
!	!	!	!	!	!	!LO:PB:g=original	!	!	!	!	!	!	!	!
=57	=57	=57	=57	=57	=57	=57	=57	=57	=57	=57	=57	=57	=57	=57
4d\	.	4a/	.	8ff#\L	.	4d\	.	.	8ff#\	in	.	4dd\	.	4ff#\
.	.	.	.	8dd\J	.	.	.	.	8dd\	ex-	.	.	.	.
.	.	.	.	.	.	.	.	.	8qqdd/	.	.	.	.	.
4G\	.	4b/	.	4e/	.	4G\	.	.	2cc#\	-cel-	.	2a/	.	2eeT\
4A\	.	4e/	.	4cc#\	.	4A\	.	.	.	.	.	.	.	.
=58	=58	=58	=58	=58	=58	=58	=58	=58	=58	=58	=58	=58	=58	=58
!	!LO:DY:a:t=p&colon;	!	!	!	!LO:DY:a:t=p&colon;	!	!	!	!	!	!	!	!	!
4D\	p	4f#/	.	8dd\L	p	2D\	-sis	.	4dd\	-sis	.	4f#/	.	4dd\
.	.	.	.	8aa\	.	.	.	.	.	.	.	.	.	.
4F#\	.	4r	.	8gg\	.	.	.	.	4r	.	.	8r	.	4r
.	.	.	.	8ff#\	.	.	.	.	.	.	.	8r	.	.
!	!	!	!LO:DY:a	!	!	!	!	!LO:DY:a:t=p.	!	!	!LO:DY:a:t=pia	!	!LO:DY:a:t=p&colon;	!
4D\	.	[<4dd\	p	8ee\	.	4F#\	o-	p	4dd\	o-	p	4ff#\	p	4aa\
.	.	.	.	8dd\J	.	.	.	.	.	.	.	.	.	.
!	!	!	!	!LO:LB:g=original	!	!	!	!	!	!	!	!	!	!
=59	=59	=59	=59	=59	=59	=59	=59	=59	=59	=59	=59	=59	=59	=59
4G\	.	2dd\]	.	8bb\L	.	2.G\	-san-	.	4dd\	-san-	.	4gg\	.	4bb\
.	.	.	.	8aa\	.	.	.	.	.	.	.	.	.	.
4B\	.	.	.	8gg\	.	.	.	.	8gg\L	.	.	4r	.	4r
.	.	.	.	8ff#\	.	.	.	.	8ff#\	.	.	.	.	.
4G\	.	4b\	.	8ee\	.	.	.	.	8ee\	.	.	4r	.	4r
.	.	.	.	8dd\J	.	.	.	.	8dd\J	.	.	.	.	.
=60	=60	=60	=60	=60	=60	=60	=60	=60	=60	=60	=60	=60	=60	=60
4C#/	.	2g/	.	8ee\L	.	4C#/	-na	.	8ee\L	.	.	4r	.	4r
.	.	.	.	8cc#\	.	.	.	.	8cc#\	.	.	.	.	.
4E\	.	.	.	8dd\	.	4E\	in	.	8dd\	.	.	4ee\	.	4gg\
.	.	.	.	8ee\	.	.	.	.	8ee\	.	.	.	.	.
4C#/	.	4e/	.	8ff#\	.	4C#/	ex-	.	8ff#\	.	.	4a/	.	4ee\
.	.	.	.	8gg\J	.	.	.	.	8gg\J	.	.	.	.	.
=61	=61	=61	=61	=61	=61	=61	=61	=61	=61	=61	=61	=61	=61	=61
4F#\	.	2cc#\	.	8aa\L	.	2.F#\	-cel-	.	8ff#\L	.	.	4ff#\	.	4aa\
.	.	.	.	8gg\	.	.	.	.	8ee\	.	.	.	.	.
4A\	.	.	.	8ff#\	.	.	.	.	8ff#\	.	.	4r	.	4r
.	.	.	.	8ee\	.	.	.	.	8ee\	.	.	.	.	.
4F#\	.	4a/	.	8dd\	.	.	.	.	8dd\	.	.	4r	.	4r
.	.	.	.	8cc#\J	.	.	.	.	8cc#\J	.	.	.	.	.
=62	=62	=62	=62	=62	=62	=62	=62	=62	=62	=62	=62	=62	=62	=62
4BB/	.	2f#/	.	8dd\L	.	4BB/	.	.	8dd\L	.	.	4r	.	4r
.	.	.	.	8b\	.	.	.	.	8b\	.	.	.	.	.
4D/	.	.	.	8cc#\	.	4D\	.	.	8cc#\	.	.	4dd\	.	4ff#\
.	.	.	.	8dd\	.	.	.	.	8dd\	.	.	.	.	.
4BB/	.	4d/	.	8ee\	.	4BB/	.	.	8ee\	.	.	4dd\	.	4dd\
.	.	.	.	8ff#\J	.	.	.	.	8ff#\J	.	.	.	.	.
=63	=63	=63	=63	=63	=63	=63	=63	=63	=63	=63	=63	=63	=63	=63
4E\	.	2b\	.	8gg\L	.	2.E\	.	.	8ee\L	.	.	4ee\	.	4gg\
.	.	.	.	8ff#\	.	.	.	.	8dd\	.	.	.	.	.
4G\	.	.	.	8ee\	.	.	.	.	8ee\	.	.	4r	.	4r
.	.	.	.	8dd\	.	.	.	.	8dd\	.	.	.	.	.
4E\	.	4g/	.	8cc#\	.	.	.	.	8cc#\	.	.	4r	.	4r
.	.	.	.	8b\J	.	.	.	.	8b\J	.	.	.	.	.
!	!	!LO:LB:g=original	!	!	!	!	!	!	!	!	!	!	!	!
=64	=64	=64	=64	=64	=64	=64	=64	=64	=64	=64	=64	=64	=64	=64
4AA/	.	2e/	.	8cc#\L	.	4AA/	.	.	8cc#\L	.	.	4r	.	4r
.	.	.	.	8a\	.	.	.	.	8a\	.	.	.	.	.
4C#/	.	.	.	8b\	.	4C#/	.	.	8b\	.	.	4a/	.	4ee\
.	.	.	.	8cc#\	.	.	.	.	8cc#\	.	.	.	.	.
4AA/	.	4c#/	.	8dd\	.	4AA/	.	.	8dd\	.	.	4a/	.	4a/
.	.	.	.	8ee\J	.	.	.	.	8ee\J	.	.	.	.	.
=65	=65	=65	=65	=65	=65	=65	=65	=65	=65	=65	=65	=65	=65	=65
4D\	.	2a/	.	8ff#\L	.	4D\	.	.	2ff#\	.	.	2dd\	.	2ff#\
.	.	.	.	8dd\J	.	.	.	.	.	.	.	.	.	.
4F#\	.	.	.	8aa\L	.	4F#\	.	.	.	.	.	.	.	.
.	.	.	.	8dd\J	.	.	.	.	.	.	.	.	.	.
.	.	.	.	.	.	.	.	.	.	.	.	.	.	16qqgg/LL
.	.	.	.	.	.	.	.	.	8qqee/	.	.	.	.	16qqaa/JJ
4G\	.	4ee\	.	8bb\L	.	4G\	.	.	4dd\	.	.	4dd\	.	4bb\
.	.	.	.	8dd\J	.	.	.	.	.	.	.	.	.	.
!	!	!	!	!	!	!	!	!	!LO:LB:g=original	!	!	!	!	!
=66	=66	=66	=66	=66	=66	=66	=66	=66	=66	=66	=66	=66	=66	=66
4.A\	.	4aa\	.	8cc#\L	.	2A\	.	.	8cc#\L	.	.	4a/	.	4ee\
.	.	.	.	8a\	.	.	.	.	8a\	.	.	.	.	.
.	.	4a/	.	8b\	.	.	.	.	8b\	.	.	4r	.	4r
8A\L	.	.	.	8cc#\	.	.	.	.	8cc#\J	.	.	.	.	.
8B\	.	4a/	.	8dd\	.	8B\L	.	.	(8dd\L	-na	.	8r	.	8r
8c#\J	.	.	.	8ee\J	.	8c#\J	.	.	8ee\J)	.	.	8ee\	.	8gg\
!LO:LB:g=original	!	!	!	!	!	!	!	!	!	!	!	!LO:LB:g=original	!	!LO:LB:g=original
=67	=67	=67	=67	=67	=67	=67	=67	=67	=67	=67	=67	=67	=67	=67
4d\	.	4a/	.	8ff#\L	.	4d\	.	.	8ff#\	in	.	4dd\	.	4ff#\
.	.	.	.	8dd\J	.	.	.	.	8dd\	ex-	.	.	.	.
4G\	.	4b/	.	4e/	.	4G\	.	.	2cc#\	-cel-	.	2a/	.	2ee\
4A\	.	4e/	.	4cc#\	.	4A\	.	.	.	.	.	.	.	.
=68	=68	=68	=68	=68	=68	=68	=68	=68	=68	=68	=68	=68	=68	=68
!	!	!	!	!	!LO:DY:a:t=for.	!	!	!	!	!	!	!	!	!
4D\	.	4f#/	.	8dd\L	f	2D\	-sis	.	4dd\	-sis	.	4f#/	.	4dd\
.	.	.	.	8aa\	.	.	.	.	.	.	.	.	.	.
4F#\	.	4r	.	8aa\	.	.	.	.	4r	.	.	4r	.	4r
.	.	.	.	8aa\	.	.	.	.	.	.	.	.	.	.
!	!	!	!LO:DY:a	!	!	!	!	!LO:DY:a:t=for	!	!	!LO:DY:a:t=for	!	!LO:DY:a:t=for	!
4A\	.	4ee\	f	8aa\	.	4A\	o-	f	4ee\	o-	f	4a/	f	4ee\
.	.	.	.	8aa\J	.	.	.	.	.	.	.	.	.	.
!	!	!	!	!	!	!LO:LB:g=original	!	!	!	!	!	!	!	!
=69	=69	=69	=69	=69	=69	=69	=69	=69	=69	=69	=69	=69	=69	=69
*	*	*	*	*tremolo	*	*	*	*	*	*	*	*	*	*
4d\	.	8ff#\L	.	8aa\L	.	4d\	-san-	.	4ff#\	-san-	.	4dd\	.	4ff#\
.	.	8dd\	.	8aa\	.	.	.	.	.	.	.	.	.	.
4d\	.	8ee\	.	8aa\	.	4d\	-na	.	4ff#\	-na	.	4dd\	.	4ff#\
.	.	8cc#\	.	8aa\	.	.	.	.	.	.	.	.	.	.
4c#\	.	8a\	.	8aa\	.	4c#\	o-	.	4ee\	o-	.	4a/	.	4ee\
.	.	8ee\J	.	8aa\J	.	.	.	.	.	.	.	.	.	.
=70	=70	=70	=70	=70	=70	=70	=70	=70	=70	=70	=70	=70	=70	=70
2d\	.	8ff#\L	.	8aa\L	.	2d\	-san-	.	2ff#\	-san-	.	2dd\	.	2ff#\
.	.	8dd\J	.	8aa\	.	.	.	.	.	.	.	.	.	.
!	!	!LO:TX:t=P:problem= mixed beam	!	!	!	!	!	!	!	!	!	!	!	!
.	.	8a/L	.	8aa\	.	.	.	.	.	.	.	.	.	.
.	.	8f#/	.	8aa\	.	.	.	.	.	.	.	.	.	.
4F#\	.	8d/	.	8aa\	.	4F#\	-na	.	4dd\	-na	.	4ff#\	.	4aa\
.	.	8dd\J	.	8aa\J	.	.	.	.	.	.	.	.	.	.
*	*	*	*	*Xtremolo	*	*	*	*	*	*	*	*	*	*
=71	=71	=71	=71	=71	=71	=71	=71	=71	=71	=71	=71	=71	=71	=71
!	!	!LO:TX:t=P:problem= mixed beam	!	!	!	!	!	!	!	!	!	!	!	!
2G\	.	8bb\L	.	8bb\L	.	2G\	in	.	2b\	in	.	4ee\	.	4gg\
.	.	8gg\	.	8gg\	.	.	.	.	.	.	.	.	.	.
.	.	.	.	.	.	.	.	.	.	.	.	.	.	8qqff#/
.	.	8ee\	.	8ee\	.	.	.	.	.	.	.	4r	.	2eeT\
.	.	8gg\	.	8gg\	.	.	.	.	.	.	.	.	.	.
4A\	.	8e/	.	8a\	.	4A\	ex-	.	4cc#\	ex-	.	4a/	.	.
.	.	8g/J	.	8cc#\J	.	.	.	.	.	.	.	.	.	.
=72	=72	=72	=72	=72	=72	=72	=72	=72	=72	=72	=72	=72	=72	=72
4AA\	.	4f#/	.	4dd\	.	4D\	-cel-	.	4dd\	-cel-	.	4f#/	.	4dd\
4AA\	.	4f#/	.	4dd\	.	4D\	-sis	.	4dd\	-sis	.	4f#/	.	4r
!	!	!	!	!	!	!	!	!	!LO:TX:a:t=Benedictus \nTacet	!	!	!	!	!
4r	.	4r	.	4r	.	4r	.	.	4r	.	.	4r	.	4r
==	==	==	==	==	==	==	==	==	==	==	==	==	==	==
*-	*-	*-	*-	*-	*-	*-	*-	*-	*-	*-	*-	*-	*-	*-
!!!system-decoration: [(s1,s2)][(s3,s4)][(s5,s6)]s7
!!!ENC: Berenika Jozajtis
!!!END: 2020-12-14
!!!ENC: Leszek Kubiak
!!!END: 2022-03-28
!!!YEC: Copyright 2022 Narodowy Instytut Fryderyka Chopina (https://polishscores.org)
!!!YEM: License CC-BY-4.0 (https://creativecommons.org/licenses/by/4.0)
